X: 23577
T: Lightning Flash, The
R: reel
M: 4/4
K: Gmajor
|:dc|BG~G2 AFDE|FEFG Addc|BG~G2 AFDA|BdcA G2dc|
BG~G2 AFDE|FEFG Adde|~f3d ecAc|BGAF G2:|
|:Bc|dg~g2 bgag|fdde fdcA|dg~g2 bgag|fdcA GABc|
dg~g2 bgag|fdde fefg|~a3g fgag|fdcA G2:|

